svg/emoji_u1f54c.svg

<svg xmlns="http://www.w3.org/2000/svg" viewBox="0 0 128 128" width="512px" height="512px"><path fill="#f2c07c" d="M12.43 106v10H4v12h34.43v-22zM98 116h26v12H98z"/><path fill="#ffa726" d="M78.42 39.75h-5.03l1-3.63h3.04z"/><path fill="#fbc21a" d="M75.71 36.12h1.72l.99 3.63h-2.44z"/><circle cx="75.98" cy="34.98" r="2.8" fill="#ffa726"/><path d="M75.98 32.18c1.54 0 2.8 1.25 2.8 2.8 0 1.54-1.25 2.8-2.8 2.8 0 0-.51-.88-.51-2.69 0-1.82.51-2.91.51-2.91z" fill="#fbc21a"/><circle cx="75.98" cy="31.05" r="1.77" fill="#ffa726"/><path d="M75.98 29.28c.98 0 1.77.79 1.77 1.77s-.79 1.77-1.77 1.77c0 0-.48-.61-.48-1.72s.48-1.82.48-1.82z" fill="#ffca28"/><path d="M104.12 67.5c0 19.01-12.6 18.17-28.14 18.17s-28.15.84-28.15-18.17 28.14-28.75 28.14-28.75 28.15 9.74 28.15 28.75z" fill="#fbc21a"/><path d="M75.98 38.75S47.84 48.49 47.84 67.5s12.6 18.17 28.14 18.17c0 0-5.86.29-5.86-17.54s5.86-29.38 5.86-29.38z" fill="#f79329"/><path fill="#f2c07c" d="M38.43 73.67h75.09V128H38.43z"/><path fill="#ffdcae" d="M109.52 77.664v46.33H42.43v-46.33z"/><path d="M89.4 109.61V128H62.53v-18.39c0-7.41 13.44-14.6 13.44-14.6s13.43 7.19 13.43 14.6z" fill="#b79178"/><path d="M75.98 95.01s-13.44 7.19-13.44 14.6v3.83c0-7.41 13.44-14.6 13.44-14.6s13.43 7.19 13.43 14.6v-3.83c-.01-7.41-13.43-14.6-13.43-14.6z" fill="#855c52"/><path d="M103.52 93.9v11.24h-9.96V93.9c0-2.75 4.98-5.41 4.98-5.41s4.98 2.66 4.98 5.41zm-45.12 0v11.24h-9.96V93.9c0-2.75 4.98-5.41 4.98-5.41s4.98 2.66 4.98 5.41z" fill="#b79178"/><path d="M98.54 88.48s-4.98 2.67-4.98 5.41v2.38c0-2.75 4.98-5.41 4.98-5.41s4.98 2.67 4.98 5.41v-2.38c0-2.74-4.98-5.41-4.98-5.41zm-45.12 0s-4.98 2.67-4.98 5.41v2.38c0-2.75 4.98-5.41 4.98-5.41s4.98 2.67 4.98 5.41v-2.38c0-2.74-4.98-5.41-4.98-5.41z" fill="#855c52"/><path fill="#ffdcae" d="M32.43 128h-14V28l6.91-24.33L32.43 28z"/><path fill="#fbc21a" d="M18.43 28l6.91-24.33L32.43 28h-14"/><path fill="#f2c07c" d="M25.09 128h-6.66V28l6.91-24.33L25.09 28z"/><path fill="#f79329" d="M18.43 28l6.91-24.33L25.09 28z"/><path fill="#ffdcae" d="M32.44 51.94H18.41l-3.98-4.4v-5.6h22v5.6z"/><path fill="#f2c07c" d="M32.45 51.94H18.41l-3.98-4.4v-5.6h8.91v5.61h13.08z"/><path fill="#ffdcae" d="M32.44 77.6H18.41l-3.98-4.39V67.6h22v5.61z"/><path fill="#f2c07c" d="M32.45 77.6H18.41l-3.98-4.39V67.6h8.91v5.62h13.08zm-.02 50.4h-8.67V91.33l8.67 15z"/><path fill="#855c52" d="M69.97 108h12v20h-12z"/><g><path fill="#fbc21a" d="M74.49 30.04l1.36-14.17 1.44 14.17h-2.8"/><path fill="#ffa726" d="M74.49 30.04l1.36-14.17-.02 14.17z"/></g></svg>

<?xml version="1.0" encoding="utf-8"?>
<!-- Generator: Adobe Illustrator 19.2.1, SVG Export Plug-In . SVG Version: 6.00 Build 0)  -->
<svg version="1.1" id="mosque" xmlns="http://www.w3.org/2000/svg" xmlns:xlink="http://www.w3.org/1999/xlink" x="0px" y="0px"
	 viewBox="0 0 128 128" style="enable-background:new 0 0 128 128;" xml:space="preserve">
<g>
	<polygon style="fill:#F2C07C;" points="12.43,106 12.43,116 4,116 4,128 38.43,128 38.43,106 	"/>
	<g>
		<rect x="98" y="116" style="fill:#F2C07C;" width="26" height="12"/>
		<g>
			<polygon style="fill:#FFA726;" points="78.42,39.75 73.39,39.75 74.39,36.12 77.43,36.12 			"/>
			<polygon style="fill:#FBC21A;" points="75.71,36.12 77.43,36.12 78.42,39.75 75.98,39.75 			"/>
			<circle style="fill:#FFA726;" cx="75.98" cy="34.98" r="2.8"/>
			<path style="fill:#FBC21A;" d="M75.98,32.18c1.54,0,2.8,1.25,2.8,2.8c0,1.54-1.25,2.8-2.8,2.8c0,0-0.51-0.88-0.51-2.69
				C75.47,33.27,75.98,32.18,75.98,32.18z"/>
			<circle style="fill:#FFA726;" cx="75.98" cy="31.05" r="1.77"/>
			<path style="fill:#FFCA28;" d="M75.98,29.28c0.98,0,1.77,0.79,1.77,1.77c0,0.98-0.79,1.77-1.77,1.77c0,0-0.48-0.61-0.48-1.72
				S75.98,29.28,75.98,29.28z"/>
			<g>
				<path style="fill:#FBC21A;" d="M104.12,67.5c0,19.01-12.6,18.17-28.14,18.17S47.83,86.51,47.83,67.5s28.14-28.75,28.14-28.75
					S104.12,48.49,104.12,67.5z"/>
				<path style="fill:#F79329;" d="M75.98,38.75c0,0-28.14,9.74-28.14,28.75s12.6,18.17,28.14,18.17c0,0-5.86,0.29-5.86-17.54
					S75.98,38.75,75.98,38.75z"/>
			</g>
			<rect x="38.43" y="73.67" style="fill:#F2C07C;" width="75.09" height="54.33"/>
			
				<rect x="52.81" y="67.29" transform="matrix(-1.836970e-16 1 -1 -1.836970e-16 176.8101 24.8538)" style="fill:#FFDCAE;" width="46.33" height="67.09"/>
			<path style="fill:#B79178;" d="M89.4,109.61c0,3.67,0,18.39,0,18.39H62.53c0,0,0-14.6,0-18.39c0-7.41,13.44-14.6,13.44-14.6
				S89.4,102.2,89.4,109.61z"/>
			<g>
				<path style="fill:#855C52;" d="M75.98,95.01c0,0-13.44,7.19-13.44,14.6c0,0.84,0,2.21,0,3.83c0-7.41,13.44-14.6,13.44-14.6
					s13.43,7.19,13.43,14.6c0-1.64,0-3.01,0-3.83C89.4,102.2,75.98,95.01,75.98,95.01z"/>
			</g>
			<path style="fill:#B79178;" d="M103.52,93.9c0,1.36,0,11.24,0,11.24h-9.96c0,0,0-9.84,0-11.24c0-2.75,4.98-5.41,4.98-5.41
				S103.52,91.15,103.52,93.9z"/>
			<path style="fill:#B79178;" d="M58.4,93.9c0,1.36,0,11.24,0,11.24h-9.96c0,0,0-9.84,0-11.24c0-2.75,4.98-5.41,4.98-5.41
				S58.4,91.15,58.4,93.9z"/>
			<g>
				<path style="fill:#855C52;" d="M98.54,88.48c0,0-4.98,2.67-4.98,5.41c0,0.35,0,1.24,0,2.38c0-2.75,4.98-5.41,4.98-5.41
					s4.98,2.67,4.98,5.41c0-1.14,0-2.03,0-2.38C103.52,91.15,98.54,88.48,98.54,88.48z"/>
				<path style="fill:#855C52;" d="M53.42,88.48c0,0-4.98,2.67-4.98,5.41c0,0.35,0,1.24,0,2.38c0-2.75,4.98-5.41,4.98-5.41
					s4.98,2.67,4.98,5.41c0-1.14,0-2.03,0-2.38C58.4,91.15,53.42,88.48,53.42,88.48z"/>
			</g>
		</g>
		<g>
			<polygon style="fill:#FFDCAE;" points="32.43,128 18.43,128 18.43,28 25.34,3.67 32.43,28 			"/>
			<polyline style="fill:#FBC21A;" points="18.43,28 25.34,3.67 32.43,28 18.43,28 			"/>
			<polygon style="fill:#F2C07C;" points="25.09,128 18.43,128 18.43,28 25.34,3.67 25.09,28 			"/>
			<polygon style="fill:#F79329;" points="18.43,28 25.34,3.67 25.09,28 			"/>
			<polygon style="fill:#FFDCAE;" points="32.44,51.94 18.41,51.94 14.43,47.54 14.43,41.94 36.43,41.94 36.43,47.54 			"/>
			<polygon style="fill:#F2C07C;" points="32.45,51.94 18.41,51.94 14.43,47.54 14.43,41.94 23.34,41.94 23.34,47.55 36.42,47.55 
							"/>
			<polygon style="fill:#FFDCAE;" points="32.44,77.6 18.41,77.6 14.43,73.21 14.43,67.6 36.43,67.6 36.43,73.21 			"/>
			<polygon style="fill:#F2C07C;" points="32.45,77.6 18.41,77.6 14.43,73.21 14.43,67.6 23.34,67.6 23.34,73.22 36.42,73.22 			"/>
			<polygon style="fill:#F2C07C;" points="32.43,128 23.76,128 23.76,91.33 32.43,106.33 			"/>
		</g>
	</g>
	<rect x="69.97" y="108" style="fill:#855C52;" width="12" height="20"/>
	<g>
		<polyline style="fill:#FBC21A;" points="74.49,30.04 75.85,15.87 77.29,30.04 74.49,30.04 		"/>
		<polygon style="fill:#FFA726;" points="74.49,30.04 75.85,15.87 75.83,30.04 		"/>
	</g>
</g>
</svg>
